X: 36239
T: Sea Invocation, The
R: reel
M: 4/4
K: Eminor
B3A B2 B>A|B2 B>A G2 F2|G4 G3A|B2 E2 E4|e4 B3A|G2 E2 E4|
G2 A2 B3A|B2 B>A G2 F2|G4 G3A|B2 E2 E4|e4 B3A|G2 E2 E4|
G2 A2 B3A|B2 B>A G2 F2|G2 B2 e3B|B2 A2 G2 F2
B3A B3A|B2 B>A G2 F2|G4 G3A|B2 E2 E4|e4 B3A|G2 E2 E4||

